X: 62
T: Piano Sonata no. 18 in E\b major, Minuetto
C: Ludwig van Beethoven
%%abc-version 2.0
%%abcx-abcm2ps-target-version 5.9.1 (29 Sep 2008)
%%abc-creator hum2abc beta
%%abcx-conversion-date 2021/01/11 11:42:09
%%abc-edited-by Craig Stuart Sapp
%%abcx-initial-encoding-date 2008/02/21/
%%gracespace 0 6 6
%%humdrum-veritas 858127686
%%humdrum-veritas-data 1760195223
%%linebreak <none>
%%barnumbers 0
L: 1/8
M: 3/4
Q: "Menuetto: Moderato e grazioso" 1/4=120
%%staves {1 2}
V: 1 clef=treble
V: 2 clef=bass
K: Eb
[V:1] B,3/E/ [I:setbarnb 1]| 
[V:2] z2 | 
[V:1] E4G3/E/ ]|:  
[V:2] G,B,G,B,G,B, & E,6 ]|:  
[V:1] E2D3E | 
[V:2] A,B,A,B,A,G, & F,4-F,E, | 
[V:1] F2>G2[FA][FB] & B,B,B,B,B,B, | 
[V:2] [D,2F,2]>[C,2E,2][B,,D,][D,F,] | 
[V:1] [F2A2][E2G2]G3/A/ & B,B,B,B,EE | 
[V:2] E,2E,,2E,3/F,/ | 
[V:1] B2>G2cA & EEEEEE | 
[V:2] G,2>E,2A,F, | 
[V:1] B2>=B2c_B & EEEEEE | 
[V:2] G,4A,G, | 
[V:1] BA2F[EG][F/B/]A/ & CC_D[B,=D]B,C | 
[V:2] F,2>B,,2E,A,, | 
[V:1] G2F z B,3/E/ & EB,D z B,A, |[1 
[V:2] B,,2>A,,2G,,F,, | 
[V:1] E4G3/E/ & G, zz2z2 :|][2 
[V:2] z B,G,B,G,B, & E,, zE,4 :|]  
[V:1] G2F z B3/_c/ & EB,DB,z2 ]|: 
[V:2] B,,2B,,, zz2 ]|:  
[V:1] !accent!_c4BA | 
[V:2] .B,, B,DB,FB, | 
[V:1] GedfeB & G2A2B z | 
[V:2] EB,FB,GB, | 
[V:1] !accent!_c4BA | 
[V:2] .B,, B,DB,FB, | 
[V:1] Gedfeg & G2A2B z | 
[V:2] EB,FB,GB, | 
[V:1] b2>g2ac' & z2e4- | 
[V:2] .E,[K:clef=treble] EGEFA | 
[V:1] b2>g2a=f & e2e3B | 
[V:2] G^FGECD[K:clef=bass] | 
[V:1] ge2<f2d & GGc2A2 |[1 
[V:2] z4B,2 & ECA,F,B,B,, | 
[V:1] f2e zz2 & A2G z B3/_c/ :|][2 
[V:2] B,D Ez3 & E,2>B,2G,E, :|]  
[V:1] A2G z | 
[V:2] E,2E,, z & f2e z | 
[V:1] .[G,2E2G2] [I:setbarnb 20]| 
[V:2] .[E,,2B,,2E,2] | 
[V:1] [A4d4a4].[A,2D2A2] | 
[V:2] [F,4B,4F4].[F,,2B,,2F,2] | 
[V:1] [B4e4b4][E2B2] | 
[V:2] [G,4E4G4][G,2B,2] | 
[V:1] [E2c2]>[E2B2].[DA].[EG] | 
[V:2] [A,2C2]>[G,2B,2].[F,B,].[E,B,] | 
[V:1] FA/G/ .F z.[G,2E2G2] & DEDz3 | 
[V:2] [B,,B,][E,B,].[B,,B,] z.[E,,2E,2] | 
[V:1] [=A4e4=a4].[B,2E2B2] | 
[V:2] ^F4.[G,,2G,2][K:clef=treble] | 
[V:1] [c4e4_g4c'4].[D2d2] | 
[V:2] =A4[K:clef=bass].[D,,2D,2] | 
[V:1] .[Ee]>.[Dd].[C2c2].[F2f2] | 
[V:2] .[E,,E,]>.[D,,D,].[C,,2C,2].[F,,2F,2] | 
[V:1] .[B,2B2]z :|]|:  
[V:2] .[B,,,2B,,2]z :|]|:  
[V:1] .B,2 | 
[V:2] .B,,2 | 
[V:1] [A4f4].B,2 | 
[V:2] [A,4D4F4].B,,2 | 
[V:1] [F4A4_c4d4].B,2 | 
[V:2] [F,4A,4_C4D4].B,,2 | 
[V:1] .[A2_c2d2f2].B,2.[F2A2c2d2] | 
[V:2] .[A,2_C2D2F2].B,,2.[F,2A,2C2D2] | 
[V:1] .B,2[F2A2_c2d2].B,2 | 
[V:2] .B,,2.[F,2A,2_C2D2].B,,2 | 
[V:1] .[F2A2_c2d2].B,2.[F2A2c2d2] | 
[V:2] .[F,2A,2_C2D2].B,,2.[F,2A,2C2D2] | 
[V:1] .B,2z2.[G,2E2G2] | 
[V:2] z2.B,,2.[E,,2B,,2E,2] & .B,,2.B,,,2z2 | 
[V:1] [A4d4a4].[A,2D2A2] | 
[V:2] [F,4B,4F4].[F,,2B,,2F,2] | 
[V:1] [B4e4b4][E2B2] | 
[V:2] [G,4E4G4][G,2B,2] | 
[V:1] [E2c2]>.[E2B2].[Ad].[Ge] | 
[V:2] [A,2C2]>.[G,2B,2].[F,B,].[E,B,] | 
[V:1] fa/g/f z.[G,2E2G2] & dedz3 | 
[V:2] [B,,B,][E,B,].[B,,B,] z.[E,,2E,2] | 
[V:1] [=A4e4=a4].[B,2E2B2] | 
[V:2] ^F4.[G,,2G,2][K:clef=treble] | 
[V:1] [c4e4_g4c'4][d2d'2] | 
[V:2] =A4[=B,2F2A2] | 
[V:1] [ee']>[cc'].[B2b2].[B2b2] | 
[V:2] [CEG]>[=A,E^F].[B,2E2G2][K:clef=bass].[B,,,2B,,2] | 
[V:1] .[E2e2]z2 :|]  
[V:2] .[E,,2E,2]z2 :|]  
[V:1] B,3/E/ [I:setbarnb 43]| 
[V:2] z2 | 
[V:1] E4G3/E/ ]|:  
[V:2] G,B,G,B,G,B, & E,6 ]|:  
[V:1] E2D3E | 
[V:2] A,B,A,B,A,G, & F,4-F,E, | 
[V:1] F2>G2[FA][FB] & B,B,B,B,B,B, | 
[V:2] [D,2F,2]>[C,2E,2][B,,D,][D,F,] | 
[V:1] [F2A2][E2G2]G3/A/ & B,B,B,B,EE | 
[V:2] E,2E,,2E,3/F,/ | 
[V:1] B2>G2cA & EEEEEE | 
[V:2] G,2>E,2A,F, | 
[V:1] B2>=B2c_B & EEEEEE | 
[V:2] G,4A,G, | 
[V:1] BA2FGB/A/ & CC_D[B,=D][B,E][CF] |[1 
[V:2] F,2>B,,2E,A,, | 
[V:1] G2F z B,3/E/ & EB,D z B,A, | 
[V:2] B,,2>A,,2G,,F,, | 
[V:1] E4G3/E/ & G, zz2z2 :|][2 
[V:2] z B,G,B,G,B, & E,, zE,4 :|]  
[V:1] G2F z & EB,DB, ]|: 
[V:2] B,,2B,,, z ]|:  
[V:1] B3/_c/ [I:setbarnb 53]| 
[V:2] z2 | 
[V:1] !accent!_c4BA | 
[V:2] .B,, B,DB,FB, | 
[V:1] GedfeB & G2A2B z | 
[V:2] EB,FB,GB, | 
[V:1] !accent!_c4BA | 
[V:2] .B,, B,DB,FB, | 
[V:1] Gedfeg & G2A2B z | 
[V:2] EB,FB,GB, | 
[V:1] b2>g2ac' & z2e4 | 
[V:2] .E,[K:clef=treble] EGEFA | 
[V:1] b2>g2af & e2e3B | 
[V:2] G^FGECD[K:clef=bass] | 
[V:1] ge2<f2d & GGc2A2- |[1 
[V:2] ECA,F,B,B,, | 
[V:1] f2e z & A2G z :|][2 
[V:2] E,2E,, z :|]  
[V:1] e2z2E3/_F/ & G2z4 | 
[V:2] .E,2.E,,2z2 | 
[V:1] _F4E3/D/ | 
[V:2] z2.[A,2_C2]z2 & z2.E,,2z2 | 
[V:1] .E2z2E3/_F/ | 
[V:2] z2.[G,2B,2]z2 & z2.E,,2z2 | 
[V:1] _F4E3/D/ | 
[V:2] z2[A,2_C2]z2 & z2.E,,2z2 | 
[V:1] E2z2E3/D/ | 
[V:2] z2.[G,2B,2][A,2_C2] & z2.E,,2.E,,2 | 
[V:1] E2z2E3/D/ | 
[V:2] z2[G,2B,2].[A,2_C2] & z2.E,,2.E,,2 | 
[V:1] E2-E>D E3/D/ | 
[V:2] z2.[G,2B,2]z2 & z2.E,,2z2 | 
[V:1] E>D E>D E3/D/ | 
[V:2] z2[G,2B,2][G,2B,2] & z2E,,2.E,,2 | 
[V:1] E2z2 |]  
[V:2] [G,2B,2]z2 & .E,,2z2 |]  


